lib/logo_tmp/nrk-logo-nrk-radio.svg

<svg width="83" height="24" viewBox="0 0 83 24" fill="none" xmlns="http://www.w3.org/2000/svg">
<path d="M6.10352e-05 18V6.00109H3.93725V18H6.10352e-05ZM9.29387 7.91078L11.5581 18H7.24923L4.54555 6.00109H6.96224C7.51641 5.9939 8.05412 6.18925 8.47456 6.55039C8.89568 6.89638 9.18501 7.3767 9.29387 7.91078ZM12.1496 18V6.00109H16.0868V18H12.1496ZM19.0605 10.5641C18.6363 10.5682 18.2188 10.4572 17.8526 10.243C17.4913 10.0341 17.1912 9.73396 16.9823 9.3726C16.7678 9.00633 16.6568 8.58876 16.661 8.16432C16.6562 7.74246 16.7673 7.32738 16.9823 6.96443C17.1934 6.60699 17.4932 6.31009 17.8526 6.10252C18.2189 5.8885 18.6363 5.77751 19.0605 5.78138C19.4823 5.77684 19.8972 5.88793 20.2603 6.10252C20.6161 6.31191 20.9127 6.60856 21.1221 6.96443C21.3369 7.32748 21.448 7.74249 21.4434 8.16432C21.4473 8.58873 21.3363 9.00623 21.1221 9.3726C20.9149 9.73238 20.618 10.0323 20.2603 10.243C19.8972 10.458 19.4825 10.5691 19.0605 10.5641ZM22.0517 18V6.00109H25.9892V18H22.0517ZM30.9738 12.5582C30.9849 12.5699 31.0693 12.7079 31.2272 12.9723C31.3851 13.2367 31.5907 13.5747 31.844 13.9863C32.0975 14.3977 32.3649 14.8343 32.6464 15.296C32.9278 15.7577 33.1927 16.1944 33.4409 16.6058C33.6882 17.0172 33.9698 17.4819 34.2858 18H29.9599C29.6893 17.5606 29.4442 17.1635 29.2245 16.8086C29.0049 16.4537 28.7714 16.0706 28.5239 15.6594C28.2759 15.2485 28.0307 14.8485 27.7883 14.4595C27.5459 14.0704 27.3376 13.7296 27.1633 13.4371C26.9883 13.1443 26.8671 12.9471 26.7997 12.8455C26.6326 12.5934 26.5337 12.3023 26.5127 12.0005C26.5295 11.7109 26.6227 11.431 26.7828 11.1891C26.8504 11.0764 26.9743 10.8764 27.1546 10.5891C27.3348 10.3018 27.5461 9.96105 27.7883 9.56672C28.0305 9.17239 28.2757 8.7696 28.5239 8.35837C28.7721 7.94715 29.0056 7.56124 29.2245 7.20071C29.4446 6.84055 29.6897 6.44059 29.9599 6.00081H34.2858L30.9397 11.4595C30.8361 11.6216 30.7778 11.8083 30.7707 12.0005C30.7818 12.2023 30.8529 12.3963 30.9738 12.5582Z" fill="white"/>
<path d="M44.8832 13.0512C45.108 13.0168 45.3299 12.965 45.5467 12.8963C45.986 12.7597 46.3918 12.5323 46.7377 12.229C47.0823 11.9213 47.3536 11.5403 47.5317 11.114C47.7319 10.6237 47.8297 10.0976 47.8189 9.56815C47.8265 8.95051 47.6967 8.33888 47.4388 7.77758C47.1725 7.2231 46.7339 6.76969 46.1886 6.48492C45.4611 6.13155 44.6567 5.96596 43.8488 6.00336H39V17.9985H40.7571V13.4032H43.3416L46.3322 17.9985H48.3931L45.5886 13.8427L44.8832 13.0512ZM44.9131 7.70127C45.263 7.83465 45.5556 8.08562 45.7407 8.41112C45.9342 8.78942 46.0272 9.21112 46.011 9.63573C46.032 10.1057 45.9178 10.5719 45.6818 10.9788C45.4584 11.3254 45.1253 11.5871 44.7357 11.7222C44.2658 11.8837 43.7711 11.961 43.2743 11.9503H40.7571V7.47318H43.4768C43.9657 7.45691 44.4533 7.53434 44.9131 7.70127Z" fill="white"/>
<path d="M57.4993 16.9344C57.3758 16.9457 57.2513 16.9271 57.1366 16.88C57.0218 16.8329 56.9202 16.7587 56.8403 16.6638C56.6836 16.3931 56.6185 16.0791 56.6545 15.7684L56.6883 12.2884C56.692 11.9235 56.6466 11.5597 56.5531 11.2069C56.471 10.8976 56.3336 10.6057 56.1477 10.3453C55.9597 10.0907 55.7209 9.87792 55.4466 9.72021C55.1278 9.5392 54.783 9.40819 54.4244 9.33187C53.986 9.23714 53.5383 9.19181 53.0897 9.19672C52.7339 9.19648 52.3784 9.21896 52.0254 9.26402C51.6919 9.30597 51.3616 9.37087 51.037 9.45829C50.736 9.54007 50.4399 9.63888 50.1501 9.75424L49.9474 11.1903C50.229 11.0889 50.4966 11.0044 50.7502 10.9368C51.0038 10.8693 51.2486 10.813 51.4848 10.7679C51.7165 10.7236 51.9506 10.6926 52.1859 10.6753C52.4166 10.658 52.6447 10.6494 52.8701 10.6496C53.2146 10.6424 53.5585 10.6822 53.8923 10.7679C54.1357 10.8289 54.3596 10.951 54.5427 11.1227C54.7057 11.2898 54.8221 11.4965 54.8806 11.7224C54.9527 12.0011 54.9867 12.2882 54.9819 12.5759L54.98 12.9997L53.0053 13.1334C52.3298 13.1523 51.6644 13.3014 51.0455 13.5724C50.5824 13.7751 50.1826 14.0991 49.8883 14.5101C49.6386 14.8759 49.506 15.3089 49.5081 15.7518C49.505 16.1674 49.6067 16.577 49.8038 16.9429C50.0104 17.3187 50.3213 17.6268 50.6992 17.8298C51.1601 18.0696 51.6752 18.186 52.1943 18.1677C52.6808 18.1789 53.1651 18.0987 53.622 17.9312C54.017 17.7767 54.3784 17.5472 54.6863 17.2554C54.8031 17.1433 54.914 17.0251 55.0186 16.9015C55.0515 17.0764 55.1133 17.2445 55.2016 17.3991C55.352 17.6578 55.5836 17.8596 55.8605 17.9734C56.1664 18.0963 56.4938 18.1567 56.8234 18.1508C56.9248 18.1508 57.0234 18.148 57.1191 18.1424C57.2131 18.137 57.3065 18.1229 57.3979 18.1002C57.488 18.0776 57.5694 18.0579 57.6429 18.041C57.709 18.0262 57.774 18.0065 57.8371 17.9819L58.0229 16.8499C57.9297 16.882 57.8335 16.9046 57.7357 16.9175C57.6573 16.9281 57.5784 16.9337 57.4993 16.9344ZM54.6863 16.1742C54.5032 16.319 54.3049 16.4436 54.095 16.5459C53.886 16.6476 53.6646 16.7215 53.4363 16.7655C53.1997 16.8113 52.9592 16.8339 52.7181 16.8331C52.4428 16.8409 52.169 16.789 51.9156 16.681C51.7094 16.5916 51.5355 16.4413 51.4172 16.2502C51.3002 16.0477 51.2417 15.8166 51.2482 15.5828C51.232 15.3012 51.3092 15.0221 51.4679 14.7888C51.6519 14.5743 51.9011 14.426 52.1774 14.3665C52.6091 14.2649 53.0522 14.2195 53.4955 14.2313H54.9746L54.967 15.9083C54.8812 16.0047 54.7873 16.0938 54.6863 16.1742Z" fill="white"/>
<path d="M65.4911 9.60669C65.474 9.59994 65.4579 9.59173 65.4405 9.58497C65.1247 9.46605 64.7998 9.37283 64.469 9.30621C64.0824 9.23006 63.689 9.19338 63.2949 9.19671C62.5568 9.19218 61.8308 9.38463 61.1918 9.75422C60.5322 10.1378 59.9914 10.6961 59.6291 11.3676C59.2132 12.161 59.0095 13.0485 59.0377 13.9438C59.0183 14.7168 59.1713 15.4843 59.4854 16.1908C59.7596 16.7942 60.2065 17.3028 60.7697 17.6522C61.3753 18.0086 62.069 18.1872 62.7714 18.1675C63.2023 18.1701 63.6316 18.1132 64.047 17.9985C64.4609 17.8797 64.8562 17.7034 65.2211 17.4747C65.3475 17.3967 65.4746 17.3092 65.6007 17.2177L65.8127 17.9985H67.2147V5.26001L65.4914 5.49656L65.4911 9.60669ZM64.5873 16.554C64.2021 16.7058 63.7932 16.7888 63.3793 16.7992C62.8965 16.8133 62.4187 16.6996 61.994 16.4695C61.5989 16.236 61.2906 15.8801 61.1155 15.4558C60.8963 14.9114 60.7927 14.3273 60.8114 13.7408C60.7916 13.1399 60.9071 12.5424 61.1493 11.9922C61.3556 11.5457 61.6949 11.174 62.1207 10.9278C62.584 10.6756 63.1057 10.5503 63.6331 10.5646C63.9044 10.564 64.1753 10.5838 64.4437 10.6238C64.71 10.665 64.9727 10.7272 65.2293 10.8099C65.3118 10.836 65.4027 10.871 65.4911 10.9031V16.1099C65.2037 16.2852 64.9009 16.4338 64.5865 16.554H64.5873Z" fill="white"/>
<path d="M69.8491 17.9985H71.5724V9.21334L69.8491 9.46673V17.9985Z" fill="white"/>
<path d="M71.3274 5.67392C71.152 5.56674 70.95 5.5111 70.7445 5.5134C70.5364 5.51177 70.3319 5.5673 70.1532 5.67392C69.9771 5.7771 69.8291 5.92218 69.7224 6.09628C69.6153 6.27166 69.5597 6.47366 69.5619 6.67916C69.5602 6.88724 69.6158 7.09175 69.7224 7.27043C69.8256 7.44725 69.9744 7.59312 70.1532 7.69279C70.3337 7.79427 70.5375 7.84671 70.7445 7.84485C70.9489 7.84735 71.1503 7.79483 71.3274 7.69279C71.5013 7.59235 71.6444 7.4463 71.7413 7.27043C71.8429 7.09003 71.8953 6.88618 71.8934 6.67916C71.8958 6.47476 71.8433 6.27344 71.7413 6.09628C71.6409 5.923 71.4986 5.77776 71.3274 5.67392Z" fill="white"/>
<path d="M81.844 11.2661C81.5073 10.6202 80.9872 10.0882 80.3491 9.73706C79.6451 9.36322 78.8567 9.17714 78.0599 9.19673C77.2556 9.17829 76.4605 9.37048 75.7534 9.75425C75.1008 10.1195 74.5671 10.6648 74.2161 11.3252C73.8348 12.0662 73.646 12.8912 73.667 13.7242C73.6455 14.5508 73.8222 15.3705 74.1823 16.1148C74.5059 16.7646 75.0221 17.2986 75.6606 17.644C76.3478 18.0039 77.115 18.1841 77.8906 18.1675C78.7026 18.1836 79.5052 17.9916 80.2221 17.6099C80.8915 17.2449 81.4404 16.6932 81.802 16.0218C82.1943 15.2722 82.389 14.4349 82.3679 13.5891C82.3871 12.7834 82.2071 11.9855 81.844 11.2661ZM80.2474 15.3968C80.0577 15.8358 79.736 16.2049 79.327 16.4527C78.9159 16.688 78.4489 16.8077 77.9754 16.7993C77.511 16.8108 77.0533 16.6875 76.6576 16.4442C76.2661 16.184 75.9604 15.8138 75.7791 15.3801C75.5492 14.8236 75.4399 14.2247 75.4584 13.6228C75.4384 13.0374 75.5479 12.4547 75.7791 11.9165C75.9687 11.4935 76.2843 11.1394 76.6829 10.9028C77.1092 10.6682 77.5903 10.5516 78.0767 10.5649C78.4564 10.5555 78.8338 10.6275 79.1834 10.7761C79.4895 10.9143 79.7566 11.1261 79.9608 11.3928C80.1784 11.6827 80.3363 12.013 80.4251 12.3645C80.5308 12.7754 80.5819 13.1985 80.5771 13.6228C80.5969 14.231 80.4843 14.8363 80.2474 15.3968Z" fill="white"/>
</svg>

<svg xmlns="http://www.w3.org/2000/svg" viewBox="0 0 83 24"><path fill="#fff" d="M0 18V6.001h3.937V18H0ZM9.294 7.91 11.558 18H7.25L4.546 6.001h2.416a2.276 2.276 0 0 1 1.513.55c.42.345.71.826.819 1.36ZM12.15 18V6.001h3.937V18H12.15Zm6.91-7.436a2.383 2.383 0 0 1-2.4-2.4 2.303 2.303 0 0 1 .322-1.2 2.411 2.411 0 0 1 3.278-.861c.356.209.653.506.862.861.215.363.326.778.321 1.2a2.4 2.4 0 0 1-1.183 2.079 2.3 2.3 0 0 1-1.2.321ZM22.053 18V6.001h3.937V18h-3.937Zm8.922-5.442c.01.012.095.15.253.414.158.265.364.603.617 1.014a327.152 327.152 0 0 1 1.597 2.62c.247.411.529.876.845 1.394H29.96c-.27-.44-.516-.837-.736-1.191-.22-.355-.453-.738-.7-1.15-.248-.41-.493-.81-.736-1.2-.242-.389-.45-.73-.625-1.022-.175-.293-.296-.49-.363-.591a1.75 1.75 0 0 1-.287-.845c.016-.29.11-.57.27-.812.067-.113.191-.313.372-.6a182.106 182.106 0 0 0 1.37-2.23c.247-.412.48-.798.7-1.158L29.96 6h4.326l-3.346 5.458a1.078 1.078 0 0 0-.17.542c.012.201.083.395.204.557ZM44.883 13.051a4.4 4.4 0 0 0 .664-.155c.439-.136.845-.364 1.19-.667.345-.308.617-.689.795-1.115.2-.49.298-1.016.287-1.546a4.166 4.166 0 0 0-.38-1.79 2.85 2.85 0 0 0-1.25-1.293 4.843 4.843 0 0 0-2.34-.482H39v11.995h1.757v-4.595h2.585l2.99 4.595h2.061l-2.804-4.155-.706-.792Zm.03-5.35c.35.134.643.385.828.71.193.378.286.8.27 1.225.021.47-.093.936-.33 1.343a1.845 1.845 0 0 1-.945.743c-.47.162-.965.239-1.462.228h-2.517V7.473h2.72c.489-.016.976.061 1.436.228ZM57.5 16.934a.77.77 0 0 1-.66-.27 1.453 1.453 0 0 1-.186-.896l.034-3.48a4.061 4.061 0 0 0-.135-1.081 2.656 2.656 0 0 0-.405-.862 2.29 2.29 0 0 0-.701-.625 3.58 3.58 0 0 0-1.023-.388 6.008 6.008 0 0 0-1.334-.135c-.356 0-.712.022-1.065.067a7.309 7.309 0 0 0-.988.194c-.301.082-.597.18-.887.296l-.203 1.436a9.92 9.92 0 0 1 1.538-.422c.232-.044.466-.075.7-.093.232-.017.46-.026.685-.025.345-.008.689.032 1.022.118.244.06.468.183.65.355.164.167.28.373.339.6.072.278.106.565.1.853L54.98 13l-1.975.133a5.252 5.252 0 0 0-1.96.44 2.808 2.808 0 0 0-1.157.937c-.25.366-.382.799-.38 1.242-.003.415.099.825.296 1.19.206.377.517.685.895.888.461.24.976.356 1.495.338.487.01.971-.07 1.428-.237a3.289 3.289 0 0 0 1.064-.676c.117-.112.228-.23.333-.354a1.6 1.6 0 0 0 .183.498c.15.259.382.46.659.574.305.123.633.184.962.178.102 0 .2-.003.296-.009.094-.005.188-.02.279-.042l.245-.059c.066-.015.131-.035.194-.06l.186-1.131c-.093.032-.19.055-.287.067-.079.011-.158.017-.237.017Zm-2.814-.76c-.183.145-.381.27-.591.372-.209.102-.43.175-.659.22a3.714 3.714 0 0 1-.718.067 1.909 1.909 0 0 1-.802-.152c-.207-.09-.38-.24-.499-.43a1.264 1.264 0 0 1-.169-.668 1.28 1.28 0 0 1 .22-.794c.184-.215.433-.363.71-.422a5.155 5.155 0 0 1 1.318-.136h1.479l-.008 1.677c-.086.097-.18.186-.28.266ZM65.491 9.607l-.05-.022a5.82 5.82 0 0 0-2.146-.388 4.15 4.15 0 0 0-2.103.557 4.14 4.14 0 0 0-1.563 1.614 5.197 5.197 0 0 0-.591 2.576 5.21 5.21 0 0 0 .447 2.247 3.351 3.351 0 0 0 1.285 1.461 3.74 3.74 0 0 0 2.001.515c.431.003.86-.054 1.276-.169.414-.118.81-.295 1.174-.523.126-.078.254-.166.38-.257l.212.78h1.402V5.26l-1.724.237v4.11Zm-.904 6.947a3.537 3.537 0 0 1-1.208.245 2.74 2.74 0 0 1-1.385-.33 2.114 2.114 0 0 1-.879-1.013 4.23 4.23 0 0 1-.304-1.715c-.02-.601.096-1.199.338-1.749.207-.446.546-.818.972-1.064a2.993 2.993 0 0 1 1.512-.363 5.106 5.106 0 0 1 1.596.245c.083.026.174.061.262.093v5.207c-.287.175-.59.324-.904.444ZM69.85 17.998h1.722V9.213l-1.723.254v8.531ZM71.327 5.674a1.094 1.094 0 0 0-.582-.16 1.137 1.137 0 0 0-.592.16 1.241 1.241 0 0 0-.43.422 1.096 1.096 0 0 0-.161.583c-.002.208.054.413.16.591.104.177.252.323.431.423.18.101.384.154.591.152.205.002.406-.05.583-.152.174-.1.317-.247.414-.423.102-.18.154-.384.152-.59a1.141 1.141 0 0 0-.152-.584 1.194 1.194 0 0 0-.414-.422ZM81.844 11.266a3.695 3.695 0 0 0-1.495-1.529 4.638 4.638 0 0 0-2.29-.54 4.614 4.614 0 0 0-2.306.557 3.895 3.895 0 0 0-1.537 1.571 4.97 4.97 0 0 0-.549 2.4 5.18 5.18 0 0 0 .515 2.39c.324.65.84 1.184 1.479 1.529.687.36 1.454.54 2.23.524a4.76 4.76 0 0 0 2.331-.558 3.933 3.933 0 0 0 1.58-1.588c.392-.75.587-1.587.566-2.433a4.897 4.897 0 0 0-.524-2.323Zm-1.597 4.13c-.19.44-.511.809-.92 1.057a2.627 2.627 0 0 1-1.352.346 2.402 2.402 0 0 1-1.317-.355 2.38 2.38 0 0 1-.879-1.064 4.26 4.26 0 0 1-.32-1.757c-.02-.586.089-1.168.32-1.707.19-.423.505-.777.904-1.013a2.736 2.736 0 0 1 1.394-.338c.38-.01.757.063 1.106.211.306.138.574.35.778.617.217.29.375.62.464.971.106.411.157.834.152 1.259a4.206 4.206 0 0 1-.33 1.774Z"/></svg>
